assets/post/images/pendulum1.svg

<svg xmlns="http://www.w3.org/2000/svg" width="1298" height="1031" overflow="hidden"><defs><clipPath id="a"><path d="M278 368h1298v1031H278z"/></clipPath></defs><g clip-path="url(#a)" transform="translate(-278 -368)"><path d="M278.5 556.917h1209.26v9.166H278.5Zm1204.67-18.334L1529 561.5l-45.83 22.917Z"/><path d="M931.083 1398.61V455.747h-9.166v942.863Zm18.334-938.28L926.5 414.497l-22.916 45.833Z"/><path fill-rule="evenodd" d="M1473.67 481.563c.84 0 1.58.094 2.21.284q.96.283 1.68.871c.49.392.92.898 1.3 1.52.38.621.74 1.465 1.09 2.533s.69 2.391 1 3.971.58 3.222.83 4.924h.4c2.6-3.647 4.56-6.315 5.9-8.004s2.46-2.945 3.38-3.769 1.81-1.405 2.66-1.742c.85-.338 1.98-.507 3.38-.507q1.905 0 3.12.486l-1.62 7.336h-2.84q-.24-1.702-1.41-1.702c-.25 0-.5.04-.77.121s-.61.257-1 .527-.96.797-1.72 1.581q-1.14 1.175-2.55 2.877c-.95 1.135-1.92 2.324-2.92 3.566l-2.76 3.445q.735 3.89 1.38 6.728c.43 1.891.82 3.465 1.16 4.721.33 1.257.63 2.249.89 2.979.25.729.53 1.277.83 1.641s.6.622.91.77.67.223 1.07.223q1.095 0 2.13-.851c.69-.567 1.68-1.851 2.98-3.85l2.64 1.743c-1.9 2.81-3.6 4.789-5.13 5.937s-3.34 1.722-5.45 1.722c-1.16 0-2.15-.209-2.96-.628s-1.51-1.087-2.11-2.006c-.59-.919-1.12-2.35-1.58-4.296-.84-3.458-1.35-6.106-1.54-7.943h-.4q-4.305 6.039-6.39 8.673c-1.39 1.756-2.54 3.053-3.44 3.89q-1.365 1.257-2.64 1.763c-.85.338-1.98.507-3.38.507q-1.905 0-3.12-.486l1.62-7.336h2.84c.16 1.135.63 1.702 1.42 1.702.37 0 .77-.101 1.19-.304q.63-.303 1.8-1.459c.79-.77 1.87-1.979 3.25-3.627 1.37-1.648 3.37-4.12 5.99-7.416-.4-2.135-.82-4.188-1.25-6.161a115 115 0 0 0-1.34-5.511c-.46-1.702-.84-2.817-1.13-3.344q-.45-.79-.96-1.094c-.33-.203-.76-.304-1.27-.304-.57 0-1.08.128-1.54.385q-.69.386-1.5 1.337c-.54.635-1.26 1.628-2.15 2.979l-2.63-1.742c1.7-2.567 3.33-4.485 4.9-5.755q2.355-1.905 5.55-1.905"/><text x="1458.88" y="516.634" fill-opacity="0" font-family="Arial,Arial_MSFontService,sans-serif" font-size="40.081">𝑥</text><path fill-rule="evenodd" d="M969.535 470.616q1.661 0 2.836.446.811.324 1.622 1.074.81.75 1.438 2.087a19.4 19.4 0 0 1 1.095 2.999q.465 1.662 1.033 4.782a408 408 0 0 1 1.884 11.003q.912 5.775 1.561 10.72 3.931-5.674 6.667-11.105 2.735-5.43 3.931-9.443 1.195-4.011 1.195-6.524 0-1.905-.81-2.594-.811-.689-2.756-.811l.405-1.986h10.654l1.1 2.027q-3.08 8.43-8.35 18.034-5.187 9.403-11.874 18.724-6.404 8.875-10.659 12.847-2.958 2.715-5.714 3.891a12.2 12.2 0 0 1-4.661.891q-.85 0-1.965-.141-1.115-.142-1.723-.385l1.743-7.863h3.202q0 2.594 1.783 2.594 2.35 0 5.471-2.938t7.335-8.855q-1.174-7.093-3.201-17.103-2.148-10.7-2.837-13.252-.852-3.08-1.783-3.932-.568-.526-1.419-.526-1.296 0-2.431 1.053-1.135 1.054-2.797 3.648l-2.634-1.743q2.796-4.174 5.228-5.897t5.431-1.722"/><text x="956.444" y="520.546" fill-opacity="0" font-family="Arial,Arial_MSFontService,sans-serif" font-size="57.063">𝑦</text><path fill="none" stroke="#d74514" stroke-miterlimit="8" stroke-width="9.167" d="m926.5 558.5 366.92 631.05"/><path fill="#d74514" fill-rule="evenodd" stroke="#d74514" stroke-miterlimit="8" stroke-width="9.167" d="M1214.5 1192.5c0-43.63 35.15-79 78.5-79s78.5 35.37 78.5 79-35.15 79-78.5 79-78.5-35.37-78.5-79Z"/><path fill="#fff" fill-rule="evenodd" d="M1271.77 1175.78c2.24 0 4.03.63 5.37 1.88 1.34 1.26 2.01 2.92 2.01 4.97 0 .67-.08 1.32-.25 1.94l.49.25c2.46-3.11 4.84-5.39 7.15-6.85s5-2.19 8.05-2.19c2.7 0 4.83.74 6.38 2.23 1.56 1.48 2.37 3.54 2.45 6.16 2.25-2.87 4.51-4.98 6.79-6.34 2.28-1.37 4.87-2.05 7.76-2.05 2.73 0 4.87.77 6.43 2.31 1.55 1.54 2.33 3.69 2.33 6.44 0 .81-.07 1.8-.21 2.96q-.195 1.74-.6 3.33l-3.29 13.04c-.29 1.14-.48 2.02-.56 2.64-.09.62-.13 1.32-.13 2.11 0 1.05.18 1.78.53 2.19q.525.6 1.5.6 1.17 0 2.64-1.11c.97-.74 2.12-1.87 3.44-3.39l2.92 2.92q-3.975 4.05-7.11 5.76c-2.1 1.13-4.4 1.7-6.91 1.7-2.79 0-4.85-.69-6.21-2.07-1.35-1.38-2.02-3.48-2.02-6.32 0-.89.09-1.98.28-3.26q.285-1.935.81-3.99l1.87-7.06c.43-1.59.81-3.27 1.15-5.04q.51-2.655.51-4.11c0-2.49-.97-3.73-2.92-3.73-1.16 0-2.58.74-4.25 2.23a21.9 21.9 0 0 0-4.16 4.88c-1.09 1.77-1.94 4.11-2.53 7.03l-4.46 20.79h-11.67l5.92-25.77c.29-1.25.5-2.27.6-3.06.11-.8.17-1.5.17-2.09 0-1.41-.25-2.43-.73-3.06-.49-.64-1.26-.95-2.31-.95-1.25 0-2.71.77-4.4 2.31s-3.05 3.16-4.09 4.86-1.88 4.03-2.5 6.97l-4.54 20.79h-11.63l6.53-28.17c.4-1.75.61-3.09.61-4.01 0-.89-.15-1.58-.45-2.06-.3-.49-.81-.73-1.54-.73-.84 0-1.74.37-2.72 1.13-.97.76-2.1 1.88-3.4 3.36l-2.92-2.91c2.7-2.76 5.1-4.69 7.2-5.8a13.9 13.9 0 0 1 6.62-1.66"/><text x="1257.95" y="1212.09" fill-opacity="0" font-family="Arial,Arial_MSFontService,sans-serif" font-size="41.5">𝒎</text><path fill="#d74514" fill-rule="evenodd" d="M1155.75 811.323h16.21l-.44 1.986c-1.03.216-1.77.459-2.21.73q-.675.405-1.2 1.215c-.35.541-.71 1.385-1.09 2.533-.38 1.149-.85 3.02-1.42 5.613l-8.67 39.515h9.97c1.81 0 3.23-.176 4.27-.527s2.03-.993 2.96-1.925 1.84-2.196 2.74-3.79c.89-1.594 1.79-3.579 2.71-5.957h3.93l-4.09 15.927h-34.29l.45-1.986q1.545-.243 2.31-.79c.51-.365.95-.871 1.3-1.52.35-.648.67-1.438.97-2.371.3-.932.74-2.735 1.34-5.41l6.89-31.206c.59-2.702.89-4.877.89-6.525 0-1.27-.32-2.155-.95-2.655-.64-.499-1.65-.79-3.02-.871Z"/><text x="1145.13" y="859.728" fill-opacity="0" font-family="Arial,Arial_MSFontService,sans-serif" font-size="55.32">𝐿</text><path fill="#d74514" fill-rule="evenodd" d="M949.106 693.04q-1.905 8.794-1.905 14.792 0 4.539 1.378 6.667 1.379 2.128 4.458 2.128 4.54 0 8.612-6.1 4.074-6.099 6.91-17.487Zm16.616-27.316q-4.741 0-8.774 5.998t-6.869 17.184h19.412q1.905-8.552 1.905-14.712 0-4.254-1.378-6.362t-4.296-2.108m.487-3.282q11.753 0 11.753 14.914 0 4.214-.953 10.071-.952 5.856-3.019 11.935t-5.228 10.76-7.295 7.234-8.916 2.553q-6.039 0-8.997-3.688-2.959-3.687-2.959-11.064 0-4.012.892-9.888t2.938-12.017 5.269-10.902 7.416-7.335q4.195-2.573 9.099-2.573"/><text x="940.595" y="712.726" fill-opacity="0" font-family="Arial,Arial_MSFontService,sans-serif" font-size="57.468">𝜃</text></g></svg>

<svg width="1298" height="1031" xmlns="http://www.w3.org/2000/svg" xmlns:xlink="http://www.w3.org/1999/xlink" overflow="hidden"><defs><clipPath id="clip0"><rect x="278" y="368" width="1298" height="1031"/></clipPath></defs><g clip-path="url(#clip0)" transform="translate(-278 -368)"><path d="M278.5 556.917 1487.76 556.917 1487.76 566.083 278.5 566.083ZM1483.17 538.583 1529 561.5 1483.17 584.417Z"/><path d="M4.58333-1.68079e-06 4.58368 942.863-4.58299 942.863-4.58333 1.68079e-06ZM22.917 938.28 0.000360892 984.113-22.9163 938.28Z" transform="matrix(1 0 0 -1 926.5 1398.61)"/><path d="M1473.67 481.563C1474.51 481.563 1475.25 481.657 1475.88 481.847 1476.52 482.036 1477.08 482.326 1477.56 482.718 1478.05 483.11 1478.48 483.616 1478.86 484.238 1479.24 484.859 1479.6 485.703 1479.95 486.771 1480.3 487.838 1480.64 489.162 1480.95 490.742 1481.26 492.323 1481.53 493.964 1481.78 495.666L1482.18 495.666C1484.78 492.019 1486.74 489.351 1488.08 487.662 1489.42 485.974 1490.54 484.717 1491.46 483.893 1492.38 483.069 1493.27 482.488 1494.12 482.151 1494.97 481.813 1496.1 481.644 1497.5 481.644 1498.77 481.644 1499.81 481.806 1500.62 482.13L1499 489.466 1496.16 489.466C1496 488.331 1495.53 487.764 1494.75 487.764 1494.5 487.764 1494.25 487.804 1493.98 487.885 1493.71 487.966 1493.37 488.142 1492.98 488.412 1492.59 488.682 1492.02 489.209 1491.26 489.993 1490.5 490.776 1489.65 491.735 1488.71 492.87 1487.76 494.005 1486.79 495.194 1485.79 496.436L1483.03 499.881C1483.52 502.475 1483.98 504.717 1484.41 506.609 1484.84 508.5 1485.23 510.074 1485.57 511.33 1485.9 512.587 1486.2 513.579 1486.46 514.309 1486.71 515.038 1486.99 515.586 1487.29 515.95 1487.59 516.315 1487.89 516.572 1488.2 516.72 1488.51 516.869 1488.87 516.943 1489.27 516.943 1490 516.943 1490.71 516.66 1491.4 516.092 1492.09 515.525 1493.08 514.241 1494.38 512.242L1497.02 513.985C1495.12 516.795 1493.42 518.774 1491.89 519.922 1490.36 521.07 1488.55 521.644 1486.44 521.644 1485.28 521.644 1484.29 521.435 1483.48 521.016 1482.67 520.597 1481.97 519.929 1481.37 519.01 1480.78 518.091 1480.25 516.66 1479.79 514.714 1478.95 511.256 1478.44 508.608 1478.25 506.771L1477.85 506.771C1474.98 510.797 1472.85 513.688 1471.46 515.444 1470.07 517.2 1468.92 518.497 1468.02 519.334 1467.11 520.172 1466.23 520.76 1465.38 521.097 1464.53 521.435 1463.4 521.604 1462 521.604 1460.73 521.604 1459.69 521.442 1458.88 521.118L1460.5 513.782 1463.34 513.782C1463.5 514.917 1463.97 515.484 1464.76 515.484 1465.13 515.484 1465.53 515.383 1465.95 515.18 1466.37 514.978 1466.97 514.491 1467.75 513.721 1468.54 512.951 1469.62 511.742 1471 510.094 1472.37 508.446 1474.37 505.974 1476.99 502.678 1476.59 500.543 1476.17 498.49 1475.74 496.517 1475.31 494.545 1474.86 492.708 1474.4 491.006 1473.94 489.304 1473.56 488.189 1473.27 487.662 1472.97 487.135 1472.65 486.771 1472.31 486.568 1471.98 486.365 1471.55 486.264 1471.04 486.264 1470.47 486.264 1469.96 486.392 1469.5 486.649 1469.04 486.906 1468.54 487.352 1468 487.986 1467.46 488.621 1466.74 489.614 1465.85 490.965L1463.22 489.223C1464.92 486.656 1466.55 484.738 1468.12 483.468 1469.69 482.198 1471.54 481.563 1473.67 481.563Z" fill-rule="evenodd"/><text fill="#000000" fill-opacity="0" font-family="Arial,Arial_MSFontService,sans-serif" font-size="40.0815" x="1458.88" y="516.634">𝑥</text><path d="M969.535 470.616C970.642 470.616 971.588 470.765 972.371 471.062 972.912 471.278 973.452 471.636 973.993 472.136 974.533 472.636 975.013 473.331 975.431 474.223 975.85 475.115 976.215 476.114 976.526 477.222 976.836 478.33 977.181 479.924 977.559 482.004 978.207 485.49 978.836 489.157 979.443 493.007 980.051 496.857 980.571 500.431 981.004 503.727 983.625 499.944 985.847 496.243 987.671 492.622 989.494 489.002 990.805 485.854 991.602 483.179 992.399 480.505 992.797 478.33 992.797 476.655 992.797 475.385 992.527 474.52 991.987 474.061 991.446 473.602 990.528 473.331 989.231 473.25L989.636 471.264 1000.29 471.264 1001.39 473.291C999.336 478.911 996.553 484.922 993.04 491.325 989.582 497.594 985.624 503.835 981.166 510.049 976.897 515.966 973.344 520.248 970.507 522.896 968.535 524.706 966.63 526.003 964.793 526.787 963.334 527.381 961.78 527.678 960.132 527.678 959.565 527.678 958.91 527.631 958.167 527.537 957.424 527.442 956.849 527.314 956.444 527.152L958.187 519.289 961.389 519.289C961.389 521.018 961.983 521.883 963.172 521.883 964.739 521.883 966.563 520.904 968.643 518.945 970.723 516.986 973.169 514.034 975.978 510.09 975.195 505.361 974.128 499.661 972.777 492.987 971.345 485.854 970.399 481.437 969.94 479.735 969.372 477.681 968.778 476.371 968.157 475.803 967.778 475.452 967.306 475.277 966.738 475.277 965.874 475.277 965.063 475.628 964.307 476.33 963.55 477.033 962.618 478.249 961.51 479.978L958.876 478.235C960.74 475.452 962.483 473.487 964.104 472.338 965.725 471.19 967.535 470.616 969.535 470.616Z" fill-rule="evenodd"/><text fill="#000000" fill-opacity="0" font-family="Arial,Arial_MSFontService,sans-serif" font-size="57.0625" x="956.444" y="520.546">𝑦</text><path d="M926.5 558.5 1293.42 1189.55" stroke="#D74514" stroke-width="9.16667" stroke-miterlimit="8" fill="none" fill-rule="evenodd"/><path d="M1214.5 1192.5C1214.5 1148.87 1249.65 1113.5 1293 1113.5 1336.35 1113.5 1371.5 1148.87 1371.5 1192.5 1371.5 1236.13 1336.35 1271.5 1293 1271.5 1249.65 1271.5 1214.5 1236.13 1214.5 1192.5Z" stroke="#D74514" stroke-width="9.16667" stroke-miterlimit="8" fill="#D74514" fill-rule="evenodd"/><path d="M1271.77 1175.78C1274.01 1175.78 1275.8 1176.41 1277.14 1177.66 1278.48 1178.92 1279.15 1180.58 1279.15 1182.63 1279.15 1183.3 1279.07 1183.95 1278.9 1184.57L1279.39 1184.82C1281.85 1181.71 1284.23 1179.43 1286.54 1177.97 1288.85 1176.51 1291.54 1175.78 1294.59 1175.78 1297.29 1175.78 1299.42 1176.52 1300.97 1178.01 1302.53 1179.49 1303.34 1181.55 1303.42 1184.17 1305.67 1181.3 1307.93 1179.19 1310.21 1177.83 1312.49 1176.46 1315.08 1175.78 1317.97 1175.78 1320.7 1175.78 1322.84 1176.55 1324.4 1178.09 1325.95 1179.63 1326.73 1181.78 1326.73 1184.53 1326.73 1185.34 1326.66 1186.33 1326.52 1187.49 1326.39 1188.65 1326.19 1189.76 1325.92 1190.82L1322.63 1203.86C1322.34 1205 1322.15 1205.88 1322.07 1206.5 1321.98 1207.12 1321.94 1207.82 1321.94 1208.61 1321.94 1209.66 1322.12 1210.39 1322.47 1210.8 1322.82 1211.2 1323.32 1211.4 1323.97 1211.4 1324.75 1211.4 1325.63 1211.03 1326.61 1210.29 1327.58 1209.55 1328.73 1208.42 1330.05 1206.9L1332.97 1209.82C1330.32 1212.52 1327.95 1214.44 1325.86 1215.58 1323.76 1216.71 1321.46 1217.28 1318.95 1217.28 1316.16 1217.28 1314.1 1216.59 1312.74 1215.21 1311.39 1213.83 1310.72 1211.73 1310.72 1208.89 1310.72 1208 1310.81 1206.91 1311 1205.63 1311.19 1204.34 1311.46 1203.01 1311.81 1201.64L1313.68 1194.58C1314.11 1192.99 1314.49 1191.31 1314.83 1189.54 1315.17 1187.77 1315.34 1186.4 1315.34 1185.43 1315.34 1182.94 1314.37 1181.7 1312.42 1181.7 1311.26 1181.7 1309.84 1182.44 1308.17 1183.93 1306.49 1185.41 1305.11 1187.04 1304.01 1188.81 1302.92 1190.58 1302.07 1192.92 1301.48 1195.84L1297.02 1216.63 1285.35 1216.63 1291.27 1190.86C1291.56 1189.61 1291.77 1188.59 1291.87 1187.8 1291.98 1187 1292.04 1186.3 1292.04 1185.71 1292.04 1184.3 1291.79 1183.28 1291.31 1182.65 1290.82 1182.01 1290.05 1181.7 1289 1181.7 1287.75 1181.7 1286.29 1182.47 1284.6 1184.01 1282.91 1185.55 1281.55 1187.17 1280.51 1188.87 1279.47 1190.57 1278.63 1192.9 1278.01 1195.84L1273.47 1216.63 1261.84 1216.63 1268.37 1188.46C1268.77 1186.71 1268.98 1185.37 1268.98 1184.45 1268.98 1183.56 1268.83 1182.87 1268.53 1182.39 1268.23 1181.9 1267.72 1181.66 1266.99 1181.66 1266.15 1181.66 1265.25 1182.03 1264.27 1182.79 1263.3 1183.55 1262.17 1184.67 1260.87 1186.15L1257.95 1183.24C1260.65 1180.48 1263.05 1178.55 1265.15 1177.44 1267.24 1176.33 1269.45 1175.78 1271.77 1175.78Z" fill="#FFFFFF" fill-rule="evenodd"/><text fill="#000000" fill-opacity="0" font-family="Arial,Arial_MSFontService,sans-serif" font-size="41.5" x="1257.95" y="1212.09">𝒎</text><path d="M1155.75 811.323 1171.96 811.323 1171.52 813.309C1170.49 813.525 1169.75 813.768 1169.31 814.039 1168.86 814.309 1168.46 814.714 1168.11 815.254 1167.76 815.795 1167.4 816.639 1167.02 817.787 1166.64 818.936 1166.17 820.807 1165.6 823.4L1156.93 862.915 1166.9 862.915C1168.71 862.915 1170.13 862.739 1171.17 862.388 1172.21 862.036 1173.2 861.395 1174.13 860.463 1175.06 859.531 1175.97 858.267 1176.87 856.673 1177.76 855.079 1178.66 853.094 1179.58 850.716L1183.51 850.716 1179.42 866.643 1145.13 866.643 1145.58 864.657C1146.61 864.495 1147.38 864.232 1147.89 863.867 1148.4 863.502 1148.84 862.996 1149.19 862.347 1149.54 861.699 1149.86 860.909 1150.16 859.976 1150.46 859.044 1150.9 857.241 1151.5 854.566L1158.39 823.36C1158.98 820.658 1159.28 818.483 1159.28 816.835 1159.28 815.565 1158.96 814.68 1158.33 814.18 1157.69 813.681 1156.68 813.39 1155.31 813.309Z" fill="#D74514" fill-rule="evenodd"/><text fill="#000000" fill-opacity="0" font-family="Arial,Arial_MSFontService,sans-serif" font-size="55.3198" x="1145.13" y="859.728">𝐿</text><path d="M949.106 693.04C947.836 698.903 947.201 703.833 947.201 707.832 947.201 710.858 947.661 713.08 948.579 714.499 949.498 715.917 950.984 716.627 953.037 716.627 956.063 716.627 958.934 714.593 961.649 710.527 964.365 706.461 966.668 700.632 968.559 693.04ZM965.722 665.724C962.561 665.724 959.637 667.724 956.948 671.722 954.26 675.721 951.97 681.449 950.079 688.906L969.491 688.906C970.761 683.205 971.396 678.301 971.396 674.194 971.396 671.358 970.937 669.237 970.018 667.832 969.1 666.427 967.668 665.724 965.722 665.724ZM966.209 662.442C974.044 662.442 977.962 667.413 977.962 677.356 977.962 680.165 977.644 683.523 977.009 687.427 976.374 691.331 975.368 695.309 973.99 699.362 972.612 703.415 970.869 707.001 968.762 710.122 966.655 713.243 964.223 715.654 961.467 717.356 958.711 719.058 955.739 719.909 952.551 719.909 948.525 719.909 945.526 718.68 943.554 716.221 941.582 713.763 940.595 710.075 940.595 705.157 940.595 702.483 940.893 699.186 941.487 695.269 942.081 691.351 943.061 687.346 944.425 683.252 945.79 679.159 947.546 675.525 949.694 672.35 951.842 669.176 954.314 666.731 957.11 665.015 959.907 663.299 962.94 662.442 966.209 662.442Z" fill="#D74514" fill-rule="evenodd"/><text fill="#000000" fill-opacity="0" font-family="Arial,Arial_MSFontService,sans-serif" font-size="57.4678" x="940.595" y="712.726">𝜃</text></g></svg>
